;FLAVOR:Marlin
;TIME:791
;Filament used: 0.507377m
;Layer height: 0.2
;MINX:14.556
;MINY:25.109
;MINZ:0.2
;MAXX:87.455
;MAXY:70.891
;MAXZ:2.6
;Generated with Creality Slicer 4.8.2-177
M104 S200
M105
M109 S200
M82 ;absolute extrusion mode
M201 X500.00 Y500.00 Z100.00 E5000.00 ;Setup machine max acceleration
M203 X500.00 Y500.00 Z10.00 E50.00 ;Setup machine max feedrate
M204 P500.00 R1000.00 T500.00 ;Setup Print/Retract/Travel acceleration
M205 X8.00 Y8.00 Z0.40 E5.00 ;Setup Jerk
M220 S100 ;Reset Feedrate
M221 S100 ;Reset Flowrate

G28 ;Home

G92 E0 ;Reset Extruder
G1 Z2.0 F3000 ;Move Z Axis up
G1 X10.1 Y20 Z0.28 F5000.0 ;Move to start position
G1 X10.1 Y200.0 Z0.28 F1500.0 E15 ;Draw the first line
G1 X10.4 Y200.0 Z0.28 F5000.0 ;Move to side a little
G1 X10.4 Y20 Z0.28 F1500.0 E30 ;Draw the second line
G92 E0 ;Reset Extruder
G1 Z2.0 F3000 ;Move Z Axis up

G92 E0
G92 E0
G1 F3600 E-8
;LAYER_COUNT:13
;LAYER:0
M107
G0 F6000 X23.186 Y30.084 Z0.2
;TYPE:SKIRT
G1 F3600 E0
G1 F1200 X23.601 Y29.762 E0.01747
G1 X23.974 Y29.485 E0.03292
G1 X24.409 Y29.176 E0.05067
G1 X24.809 Y28.905 E0.06674
G1 X25.216 Y28.642 E0.08286
G1 X25.618 Y28.394 E0.09857
G1 X25.923 Y28.215 E0.11033
G1 X26.439 Y27.931 E0.12992
G1 X27.408 Y27.43 E0.1662
G1 X27.74 Y27.265 E0.17853
G1 X27.86 Y27.208 E0.18295
G1 X28.299 Y27.011 E0.19896
G1 X28.77 Y26.812 E0.21596
G1 X29.214 Y26.636 E0.23185
G1 X29.523 Y26.521 E0.24281
G1 X30.072 Y26.333 E0.26211
G1 X31.116 Y26.006 E0.2985
G1 X31.479 Y25.899 E0.31109
G1 X31.624 Y25.859 E0.31609
G1 X32.077 Y25.744 E0.33164
G1 X32.541 Y25.637 E0.34747
G1 X33.04 Y25.534 E0.36442
G1 X33.583 Y25.435 E0.38278
G1 X34.052 Y25.36 E0.39858
G1 X34.559 Y25.29 E0.4156
G1 X35.026 Y25.236 E0.43123
G1 X35.554 Y25.186 E0.44887
G1 X36.057 Y25.15 E0.46565
G1 X36.551 Y25.126 E0.4821
G1 X37.003 Y25.113 E0.49714
G1 X37.541 Y25.109 E0.51503
G1 X38.023 Y25.116 E0.53106
G1 X38.545 Y25.135 E0.54844
G1 X39.05 Y25.165 E0.56526
G1 X39.498 Y25.202 E0.58021
G1 X39.938 Y25.248 E0.59493
G1 X40.214 Y25.282 E0.60418
G1 X41.139 Y25.436 E0.63537
G1 X42.048 Y25.668 E0.66657
G1 X42.527 Y25.835 E0.68344
G1 X42.53 Y25.828 E0.68369
G1 X45.065 Y26.718 E0.77305
G1 X47.416 Y27.468 E0.85513
G1 X49.892 Y28.183 E0.94085
G1 X52.314 Y28.808 E1.02404
G1 X54.756 Y29.366 E1.10736
G1 X57.226 Y29.855 E1.19111
G1 X59.724 Y30.278 E1.27537
G1 X62.189 Y30.624 E1.35816
G1 X64.712 Y30.906 E1.4426
G1 X67.189 Y31.111 E1.52527
G1 X69.766 Y31.252 E1.61111
G1 X70.328 Y31.268 E1.62981
G1 X71.16 Y31.298 E1.6575
G1 X71.418 Y31.31 E1.66609
G1 X71.737 Y31.329 E1.67672
G1 X72.108 Y31.358 E1.68909
G1 X72.418 Y31.387 E1.69945
G1 X73.087 Y31.47 E1.72187
G1 X73.536 Y31.54 E1.73698
G1 X74.281 Y31.683 E1.76222
G1 X74.668 Y31.771 E1.77542
G1 X75.369 Y31.955 E1.79952
G1 X75.651 Y32.039 E1.80931
G1 X76.298 Y32.253 E1.83197
G1 X76.718 Y32.407 E1.84685
G1 X77.402 Y32.685 E1.87141
G1 X77.665 Y32.802 E1.88098
G1 X78.34 Y33.13 E1.90594
G1 X78.767 Y33.356 E1.92201
G1 X79.352 Y33.689 E1.9444
G1 X79.601 Y33.841 E1.9541
G1 X80.242 Y34.263 E1.97963
G1 X80.553 Y34.484 E1.99232
G1 X81.084 Y34.886 E2.01447
G1 X81.455 Y35.185 E2.03032
G1 X81.801 Y35.476 E2.04536
G1 X82.264 Y35.901 E2.06626
G1 X82.478 Y36.109 E2.07618
G1 X82.817 Y36.453 E2.09225
G1 X83.013 Y36.662 E2.10178
G1 X83.24 Y36.911 E2.11298
G1 X83.746 Y37.508 E2.13901
G1 X83.948 Y37.764 E2.14986
G1 X84.346 Y38.301 E2.17209
G1 X84.551 Y38.596 E2.18404
G1 X84.938 Y39.192 E2.20768
G1 X85.134 Y39.517 E2.2203
G1 X85.472 Y40.12 E2.24329
G1 X85.651 Y40.464 E2.25619
G1 X85.978 Y41.149 E2.28143
G1 X86.154 Y41.553 E2.29609
G1 X86.404 Y42.178 E2.31848
G1 X86.474 Y42.37 E2.32528
G1 X86.714 Y43.109 E2.35112
G1 X86.873 Y43.664 E2.37032
G1 X87.024 Y44.252 E2.39051
G1 X87.062 Y44.419 E2.39621
G1 X87.214 Y45.224 E2.42346
G1 X87.311 Y45.869 E2.44515
G1 X87.401 Y46.661 E2.47166
G1 X87.417 Y46.869 E2.4786
G1 X87.443 Y47.347 E2.49452
G1 X87.45 Y47.557 E2.50151
G1 X87.455 Y48.065 E2.51841
G1 X87.451 Y48.375 E2.52872
G1 X87.437 Y48.803 E2.54296
G1 X87.43 Y48.938 E2.54746
G1 X87.375 Y49.611 E2.56992
G1 X87.326 Y50.042 E2.58435
G1 X87.227 Y50.721 E2.60717
G1 X87.164 Y51.076 E2.61916
G1 X87.012 Y51.793 E2.64354
G1 X86.905 Y52.226 E2.65837
G1 X86.72 Y52.885 E2.68114
G1 X86.643 Y53.13 E2.68968
G1 X86.386 Y53.858 E2.71536
G1 X86.187 Y54.364 E2.73344
G1 X85.894 Y55.041 E2.75798
G1 X85.824 Y55.189 E2.76342
G1 X85.518 Y55.788 E2.78579
G1 X85.249 Y56.277 E2.80436
G1 X84.871 Y56.913 E2.82896
G1 X84.728 Y57.136 E2.83778
G1 X84.341 Y57.7 E2.86053
G1 X84.097 Y58.033 E2.87426
G1 X83.637 Y58.617 E2.89898
G1 X83.322 Y58.991 E2.91525
G1 X82.475 Y59.889 E2.9563
G1 X82.112 Y60.233 E2.97294
G1 X81.596 Y60.693 E2.99593
G1 X81.275 Y60.961 E3.00984
G1 X80.674 Y61.428 E3.03515
G1 X80.388 Y61.635 E3.04689
G1 X79.787 Y62.041 E3.07102
G1 X79.513 Y62.213 E3.08178
G1 X78.966 Y62.534 E3.10287
G1 X78.626 Y62.721 E3.11578
G1 X77.909 Y63.082 E3.14248
G1 X77.488 Y63.275 E3.15788
G1 X76.846 Y63.545 E3.18105
G1 X76.536 Y63.664 E3.19209
G1 X76.087 Y63.826 E3.20797
G1 X75.872 Y63.898 E3.21551
G1 X75.227 Y64.092 E3.23791
G1 X74.83 Y64.194 E3.25154
G1 X74.515 Y64.269 E3.26231
G1 X73.852 Y64.405 E3.28482
G1 X73.415 Y64.481 E3.29958
G1 X72.675 Y64.584 E3.32443
G1 X72.331 Y64.62 E3.33593
G1 X71.626 Y64.671 E3.35944
G1 X69.877 Y64.741 E3.41766
G1 X67.274 Y64.882 E3.50436
G1 X64.745 Y65.091 E3.58876
G1 X62.258 Y65.367 E3.67199
G1 X59.741 Y65.719 E3.75652
G1 X57.304 Y66.131 E3.83872
G1 X54.779 Y66.631 E3.92434
G1 X52.373 Y67.178 E4.0064
G1 X49.916 Y67.812 E4.0908
G1 X47.497 Y68.508 E4.17452
G1 X45.071 Y69.281 E4.25921
G1 X43.183 Y69.937 E4.32568
G1 X42.566 Y70.158 E4.34748
G1 X41.671 Y70.436 E4.37865
G1 X40.35 Y70.7 E4.42346
G1 X40.204 Y70.72 E4.42836
G1 X39.733 Y70.774 E4.44413
G1 X39.283 Y70.816 E4.45916
G1 X38.789 Y70.851 E4.47563
G1 X38.31 Y70.874 E4.49158
G1 X37.864 Y70.887 E4.50642
G1 X37.326 Y70.891 E4.52432
G1 X36.842 Y70.884 E4.54042
G1 X36.322 Y70.865 E4.55772
G1 X35.824 Y70.835 E4.57432
G1 X35.483 Y70.807 E4.5857
G1 X34.933 Y70.748 E4.60409
G1 X33.918 Y70.613 E4.63815
G1 X33.515 Y70.552 E4.65171
G1 X33.316 Y70.518 E4.65842
G1 X32.855 Y70.429 E4.67404
G1 X32.367 Y70.324 E4.69064
G1 X31.883 Y70.208 E4.70719
G1 X31.575 Y70.127 E4.71779
G1 X31.046 Y69.974 E4.7361
G1 X30.255 Y69.723 E4.7637
G1 X29.81 Y69.571 E4.77934
G1 X29.073 Y69.302 E4.80544
G1 X28.628 Y69.129 E4.82132
G1 X28.123 Y68.912 E4.8396
G1 X27.624 Y68.682 E4.85787
G1 X27.223 Y68.487 E4.8727
G1 X26.771 Y68.256 E4.88959
G1 X26.322 Y68.013 E4.90657
G1 X25.865 Y67.752 E4.92407
G1 X25.478 Y67.52 E4.93908
G1 X25.06 Y67.258 E4.95549
G1 X24.626 Y66.972 E4.97278
G1 X24.341 Y66.774 E4.98432
G1 X23.91 Y66.458 E5.00209
G1 X23.043 Y65.791 E5.03848
G1 X22.684 Y65.504 E5.05376
G1 X22.579 Y65.416 E5.05832
G1 X22.284 Y65.159 E5.07133
G1 X21.892 Y64.806 E5.08888
G1 X21.52 Y64.456 E5.10587
G1 X21.176 Y64.116 E5.12195
G1 X20.849 Y63.778 E5.13759
G1 X20.614 Y63.525 E5.14908
G1 X20.245 Y63.107 E5.16762
G1 X19.539 Y62.265 E5.20417
G1 X19.252 Y61.908 E5.21941
G1 X18.93 Y61.478 E5.23727
G1 X18.729 Y61.195 E5.24882
G1 X18.411 Y60.722 E5.26778
G1 X17.856 Y59.848 E5.30221
G1 X17.388 Y59.035 E5.33341
G1 X16.897 Y58.093 E5.36874
G1 X16.712 Y57.723 E5.3825
G1 X16.638 Y57.567 E5.38824
G1 X16.444 Y57.133 E5.40406
G1 X16.251 Y56.676 E5.42056
G1 X16.088 Y56.269 E5.43514
G1 X15.971 Y55.958 E5.44619
G1 X15.777 Y55.396 E5.46596
G1 X15.451 Y54.363 E5.50199
G1 X15.336 Y53.972 E5.51555
G1 X15.298 Y53.834 E5.52031
G1 X15.183 Y53.378 E5.53595
G1 X15.066 Y52.869 E5.55332
G1 X14.963 Y52.369 E5.5703
G1 X14.871 Y51.862 E5.58744
G1 X14.799 Y51.415 E5.6025
G1 X14.727 Y50.898 E5.61986
G1 X14.672 Y50.427 E5.63563
G1 X14.623 Y49.914 E5.65277
G1 X14.587 Y49.429 E5.66895
G1 X14.57 Y49.096 E5.68004
G1 X14.556 Y48.535 E5.6987
G1 X14.556 Y47.427 E5.73555
G1 X14.566 Y46.954 E5.75129
G1 X14.595 Y46.458 E5.76781
G1 X14.639 Y45.912 E5.78603
G1 X14.688 Y45.434 E5.80201
G1 X14.752 Y44.921 E5.81921
G1 X14.82 Y44.455 E5.83487
G1 X14.91 Y43.921 E5.85288
G1 X14.996 Y43.466 E5.86829
G1 X15.101 Y42.971 E5.88512
G1 X15.217 Y42.482 E5.90183
G1 X15.298 Y42.171 E5.91252
G1 X15.456 Y41.622 E5.93152
G1 X15.779 Y40.602 E5.96711
G1 X15.897 Y40.252 E5.97939
G1 X15.954 Y40.091 E5.98507
G1 X16.125 Y39.64 E6.00111
G1 X16.317 Y39.165 E6.01815
G1 X16.511 Y38.714 E6.03448
G1 X16.639 Y38.434 E6.04472
G1 X16.887 Y37.925 E6.06356
G1 X17.386 Y36.967 E6.09948
G1 X17.862 Y36.143 E6.13113
G1 X18.436 Y35.241 E6.16669
G1 X18.676 Y34.88 E6.18111
G1 X18.737 Y34.792 E6.18467
G1 X18.985 Y34.449 E6.19875
G1 X19.194 Y34.171 E6.21032
G1 X19.557 Y33.714 E6.22973
G1 X20.268 Y32.866 E6.26654
G1 X20.537 Y32.556 E6.28019
G1 X20.603 Y32.483 E6.28346
G1 X20.937 Y32.13 E6.29962
G1 X21.339 Y31.723 E6.31865
G1 X21.669 Y31.402 E6.33396
G1 X22.046 Y31.051 E6.35109
G1 X22.442 Y30.7 E6.3687
G1 X22.829 Y30.373 E6.38555
G1 X23.186 Y30.084 E6.40082
G0 F6000 X23.431 Y30.4
G1 F1200 X23.846 Y30.078 E6.41829
G1 X24.205 Y29.811 E6.43317
G1 X24.64 Y29.502 E6.45092
G1 X25.026 Y29.241 E6.46642
G1 X25.433 Y28.978 E6.48254
G1 X25.821 Y28.739 E6.49769
G1 X26.126 Y28.56 E6.50946
G1 X26.623 Y28.286 E6.52833
G1 X27.592 Y27.785 E6.56461
G1 X27.912 Y27.626 E6.5765
G1 X28.032 Y27.569 E6.58092
G1 X28.455 Y27.38 E6.59633
G1 X28.926 Y27.181 E6.61333
G1 X29.354 Y27.011 E6.62865
G1 X29.663 Y26.896 E6.63962
G1 X30.192 Y26.715 E6.65821
G1 X31.236 Y26.388 E6.6946
G1 X31.585 Y26.285 E6.7067
G1 X31.73 Y26.245 E6.7117
G1 X32.167 Y26.134 E6.7267
G1 X32.631 Y26.027 E6.74254
G1 X33.112 Y25.928 E6.75887
G1 X33.655 Y25.829 E6.77723
G1 X34.106 Y25.757 E6.79242
G1 X34.613 Y25.687 E6.80944
G1 X35.064 Y25.634 E6.82455
G1 X35.592 Y25.584 E6.84219
G1 X36.077 Y25.549 E6.85836
G1 X36.571 Y25.525 E6.87481
G1 X37.006 Y25.513 E6.88928
G1 X37.544 Y25.509 E6.90718
G1 X38.009 Y25.516 E6.92265
G1 X38.531 Y25.535 E6.94002
G1 X39.017 Y25.564 E6.95621
G1 X39.465 Y25.601 E6.97116
G1 X39.889 Y25.645 E6.98534
G1 X40.165 Y25.679 E6.99459
G1 X41.073 Y25.831 E7.02521
G1 X41.964 Y26.061 E7.05582
G1 X42.394 Y26.213 E7.07099
G1 X42.397 Y26.205 E7.07127
G1 X44.948 Y27.101 E7.1612
G1 X47.321 Y27.858 E7.24404
G1 X49.754 Y28.56 E7.32827
G1 X52.231 Y29.199 E7.41335
G1 X54.654 Y29.753 E7.49602
G1 X57.195 Y30.256 E7.58217
G1 X59.633 Y30.669 E7.66442
G1 X62.161 Y31.024 E7.74932
G1 X64.636 Y31.3 E7.83215
G1 X67.205 Y31.513 E7.91789
G1 X69.692 Y31.649 E8.00073
G1 X70.314 Y31.668 E8.02143
G1 X71.146 Y31.698 E8.04912
G1 X71.394 Y31.71 E8.05738
G1 X71.713 Y31.729 E8.06801
G1 X72.07 Y31.756 E8.07991
G1 X72.38 Y31.785 E8.09027
G1 X73.026 Y31.866 E8.11192
G1 X73.475 Y31.936 E8.12704
G1 X74.192 Y32.073 E8.15132
G1 X74.579 Y32.161 E8.16452
G1 X75.255 Y32.338 E8.18776
G1 X75.537 Y32.422 E8.19755
G1 X76.16 Y32.629 E8.21938
G1 X76.58 Y32.783 E8.23426
G1 X77.239 Y33.05 E8.25791
G1 X77.502 Y33.167 E8.26748
G1 X78.153 Y33.483 E8.29155
G1 X78.58 Y33.709 E8.30762
G1 X79.144 Y34.031 E8.32922
G1 X79.393 Y34.183 E8.33892
G1 X80.01 Y34.589 E8.36349
G1 X80.321 Y34.81 E8.37618
G1 X80.833 Y35.198 E8.39754
G1 X81.204 Y35.497 E8.41339
G1 X81.539 Y35.779 E8.42796
G1 X81.985 Y36.188 E8.44808
G1 X82.199 Y36.396 E8.45801
G1 X82.456 Y36.654 E8.47012
G1 X82.717 Y36.932 E8.4828
G1 X82.944 Y37.181 E8.49401
G1 X83.432 Y37.756 E8.5191
G1 X83.634 Y38.012 E8.52994
G1 X84.018 Y38.529 E8.55136
G1 X84.223 Y38.824 E8.56331
G1 X84.595 Y39.399 E8.58609
G1 X84.791 Y39.724 E8.59871
G1 X85.117 Y40.305 E8.62087
G1 X85.296 Y40.649 E8.63377
G1 X85.611 Y41.308 E8.65806
G1 X85.787 Y41.712 E8.67272
G1 X86.028 Y42.315 E8.69432
G1 X86.098 Y42.507 E8.70111
G1 X86.329 Y43.219 E8.72601
G1 X86.488 Y43.774 E8.74521
G1 X86.634 Y44.341 E8.76468
G1 X86.672 Y44.508 E8.77038
G1 X86.818 Y45.284 E8.79664
G1 X86.915 Y45.929 E8.81834
G1 X87.002 Y46.692 E8.84388
G1 X87.018 Y46.9 E8.85082
G1 X87.043 Y47.36 E8.86614
G1 X87.05 Y47.57 E8.87313
G1 X87.055 Y48.06 E8.88943
G1 X87.051 Y48.37 E8.89974
G1 X87.038 Y48.782 E8.91345
G1 X87.031 Y48.917 E8.91794
G1 X86.977 Y49.565 E8.93957
G1 X86.928 Y49.996 E8.954
G1 X86.833 Y50.651 E8.97601
G1 X86.77 Y51.006 E8.988
G1 X86.623 Y51.697 E9.0115
G1 X86.516 Y52.13 E9.02634
G1 X86.338 Y52.765 E9.04827
G1 X86.261 Y53.01 E9.05681
G1 X86.014 Y53.712 E9.08156
G1 X85.815 Y54.218 E9.09965
G1 X85.532 Y54.87 E9.12329
G1 X85.462 Y55.018 E9.12873
G1 X85.167 Y55.595 E9.15029
G1 X84.898 Y56.084 E9.16885
G1 X84.534 Y56.697 E9.19256
G1 X84.391 Y56.92 E9.20137
G1 X84.018 Y57.463 E9.22328
G1 X83.774 Y57.796 E9.23702
G1 X83.331 Y58.36 E9.26087
G1 X83.016 Y58.734 E9.27713
G1 X82.2 Y59.599 E9.31668
G1 X81.837 Y59.943 E9.33332
G1 X81.339 Y60.386 E9.35549
G1 X81.018 Y60.654 E9.36939
G1 X80.44 Y61.104 E9.39376
G1 X80.154 Y61.311 E9.4055
G1 X79.575 Y61.702 E9.42874
G1 X79.301 Y61.874 E9.4395
G1 X78.773 Y62.184 E9.45986
G1 X78.433 Y62.371 E9.47277
G1 X77.742 Y62.719 E9.4985
G1 X77.321 Y62.912 E9.5139
G1 X76.703 Y63.172 E9.5362
G1 X76.393 Y63.291 E9.54725
G1 X75.96 Y63.446 E9.56255
G1 X75.745 Y63.518 E9.57009
G1 X75.123 Y63.706 E9.5917
G1 X74.737 Y63.805 E9.60495
G1 X74.422 Y63.88 E9.61572
G1 X73.783 Y64.011 E9.63742
G1 X73.346 Y64.087 E9.65217
G1 X72.633 Y64.186 E9.67611
G1 X72.289 Y64.222 E9.68762
G1 X71.61 Y64.272 E9.71026
G1 X69.767 Y64.346 E9.77161
G1 X67.255 Y64.482 E9.85528
G1 X64.704 Y64.693 E9.94042
G1 X62.225 Y64.968 E10.02337
G1 X59.69 Y65.323 E10.10851
G1 X57.196 Y65.744 E10.19264
G1 X54.718 Y66.234 E10.27665
G1 X52.29 Y66.787 E10.35947
G1 X49.787 Y67.432 E10.44544
G1 X47.393 Y68.121 E10.5283
G1 X44.98 Y68.89 E10.61253
G1 X42.951 Y69.595 E10.68398
G1 X42.431 Y69.781 E10.70235
G1 X41.552 Y70.054 E10.73296
G1 X40.296 Y70.304 E10.77555
G1 X40.15 Y70.324 E10.78045
G1 X39.696 Y70.376 E10.79565
G1 X39.246 Y70.418 E10.81069
G1 X38.769 Y70.452 E10.82659
G1 X38.29 Y70.475 E10.84254
G1 X37.861 Y70.487 E10.85681
G1 X37.323 Y70.491 E10.87471
G1 X36.857 Y70.484 E10.89021
G1 X36.337 Y70.465 E10.90752
G1 X35.857 Y70.436 E10.92351
G1 X35.516 Y70.408 E10.93489
G1 X34.985 Y70.351 E10.95265
G1 X33.97 Y70.216 E10.98671
G1 X33.583 Y70.158 E10.99973
G1 X33.384 Y70.124 E11.00644
G1 X32.939 Y70.038 E11.02151
G1 X32.451 Y69.933 E11.03812
G1 X31.985 Y69.821 E11.05406
G1 X31.677 Y69.74 E11.06465
G1 X31.167 Y69.593 E11.0823
G1 X30.376 Y69.342 E11.1099
G1 X29.948 Y69.195 E11.12496
G1 X29.211 Y68.926 E11.15105
G1 X28.894 Y68.805 E11.16234
G1 X28.777 Y68.758 E11.16653
G1 X28.291 Y68.549 E11.18413
G1 X27.792 Y68.319 E11.2024
G1 X27.405 Y68.131 E11.21671
G1 X26.953 Y67.9 E11.23359
G1 X26.52 Y67.666 E11.24996
G1 X26.063 Y67.405 E11.26747
G1 X25.69 Y67.182 E11.28192
G1 X25.272 Y66.92 E11.29833
G1 X24.854 Y66.643 E11.31501
G1 X24.569 Y66.445 E11.32655
G1 X24.154 Y66.141 E11.34366
G1 X23.287 Y65.474 E11.38004
G1 X22.941 Y65.197 E11.39479
G1 X22.836 Y65.109 E11.39934
G1 X22.552 Y64.862 E11.41186
G1 X22.16 Y64.509 E11.42941
G1 X21.802 Y64.171 E11.44578
G1 X21.458 Y63.831 E11.46187
G1 X21.142 Y63.506 E11.47694
G1 X20.907 Y63.253 E11.48843
G1 X20.551 Y62.85 E11.50631
G1 X19.845 Y62.008 E11.54286
G1 X19.566 Y61.661 E11.55767
G1 X19.256 Y61.246 E11.5749
G1 X19.055 Y60.963 E11.58644
G1 X18.749 Y60.507 E11.60471
G1 X18.194 Y59.633 E11.63914
G1 X17.742 Y58.85 E11.66921
G1 X17.251 Y57.908 E11.70455
G1 X17.074 Y57.552 E11.71777
G1 X17 Y57.396 E11.72351
G1 X16.812 Y56.977 E11.73879
G1 X16.619 Y56.52 E11.75529
G1 X16.463 Y56.128 E11.76932
G1 X16.346 Y55.817 E11.78037
G1 X16.158 Y55.275 E11.79945
G1 X15.832 Y54.242 E11.83548
G1 X15.721 Y53.866 E11.84852
G1 X15.683 Y53.728 E11.85328
G1 X15.572 Y53.289 E11.86834
G1 X15.455 Y52.78 E11.88571
G1 X15.356 Y52.298 E11.90208
G1 X15.264 Y51.791 E11.91922
G1 X15.195 Y51.36 E11.93373
G1 X15.123 Y50.843 E11.95109
